static/assets/img/icons/theme/food/cheese.svg

<svg height="24" viewBox="0 0 24 24" width="24" xmlns="http://www.w3.org/2000/svg"><g fill="none" fill-rule="evenodd"><path d="m0 0h24v24h-24z" opacity="0"/><g fill="#000"><path d="m22 13.9146471v5.0853529c0 1.1045695-.8954305 2-2 2h-6c0-1.1045695-.8954305-2-2-2s-2 .8954305-2 2h-6c-1.1045695 0-2-.8954305-2-2v-12h20v4.0853529c-.1563895-.0552758-.3246823-.0853529-.5-.0853529-.8284271 0-1.5.6715729-1.5 1.5s.6715729 1.5 1.5 1.5c.1753177 0 .3436105-.0300771.5-.0853529zm-13 3.0853529c2.209139 0 4-1.790861 4-4s-1.790861-4-4-4-4 1.790861-4 4 1.790861 4 4 4zm9 1c.5522847 0 1-.4477153 1-1s-.4477153-1-1-1-1 .4477153-1 1 .4477153 1 1 1zm-13 3c.55228475 0 1-.4477153 1-1s-.44771525-1-1-1-1 .4477153-1 1 .44771525 1 1 1z"/><path d="m19.5954729 5.83476152-14.98663372-1.76313338c-.37358657-.04395136-.74023382.12546383-.94889154.43845041l-1.65994764 2.48992145h20c-.647706-.64770604-1.4948064-1.05821252-2.4045271-1.16523848z" opacity=".3"/></g></g></svg>

<svg width="24px" height="24px" viewBox="0 0 24 24" version="1.1" xmlns="http://www.w3.org/2000/svg" xmlns:xlink="http://www.w3.org/1999/xlink">
    <title>Icon For Cheese</title>
    <g stroke="none" stroke-width="1" fill="none" fill-rule="evenodd">
        <rect opacity="0" x="0" y="0" width="24" height="24"></rect>
        <path d="M22,13.9146471 L22,19 C22,20.1045695 21.1045695,21 20,21 L14,21 C14,19.8954305 13.1045695,19 12,19 C10.8954305,19 10,19.8954305 10,21 L4,21 C2.8954305,21 2,20.1045695 2,19 L2,7 L22,7 L22,11.0853529 C21.8436105,11.0300771 21.6753177,11 21.5,11 C20.6715729,11 20,11.6715729 20,12.5 C20,13.3284271 20.6715729,14 21.5,14 C21.6753177,14 21.8436105,13.9699229 22,13.9146471 Z M9,17 C11.209139,17 13,15.209139 13,13 C13,10.790861 11.209139,9 9,9 C6.790861,9 5,10.790861 5,13 C5,15.209139 6.790861,17 9,17 Z M18,18 C18.5522847,18 19,17.5522847 19,17 C19,16.4477153 18.5522847,16 18,16 C17.4477153,16 17,16.4477153 17,17 C17,17.5522847 17.4477153,18 18,18 Z M5,21 C5.55228475,21 6,20.5522847 6,20 C6,19.4477153 5.55228475,19 5,19 C4.44771525,19 4,19.4477153 4,20 C4,20.5522847 4.44771525,21 5,21 Z" fill="#000000"></path>
        <path d="M19.5954729,5.83476152 L4.60883918,4.07162814 C4.23525261,4.02767678 3.86860536,4.19709197 3.65994764,4.51007855 L2,7 C15.3333333,7 22,7 22,7 C22,7 22,7 22,7 L22,7 C21.352294,6.35229396 20.5051936,5.94178748 19.5954729,5.83476152 Z" fill="#000000" opacity="0.3"></path>
    </g>
</svg>
